app/dist/common/images/alzamend-neuro.svg

<svg height="18" viewBox="0 0 18 18" width="18" xmlns="http://www.w3.org/2000/svg"><path d="m0 0h18v18h-18z" fill="#f0f3fa"/><path d="m4.94 8h8.53c.45 1.34-.83 2.3-1.47 2.83v3.17h-4.64v-1c-.33 0-1.12.02-1.65 0a.93.93 0 0 1 -.85-.6v-1.43l-1.15-.14 1.15-2.21z" fill="#1fc2de"/><g fill="#510b76"><path d="m5.59 8a3.66 3.66 0 0 1 3.69-3.96 3.66 3.66 0 0 1 3.68 3.96h-.69a2.98 2.98 0 0 0 -3-3.3 2.98 2.98 0 0 0 -3 3.3h-.67z"/><path d="m6.25 7.33h3.37v.66h-3.37zm4.03-.02h2.36v.69h-2.36z"/><path d="m11 8.66v-1.99h.67v2z"/><path d="m9.23 3.7a4.02 4.02 0 0 0 -4 4.75l.02.12-1.09 2.08h1.17v1.76c0 .06 0 .1.02.14a.1.1 0 0 0 .04.05c.02 0 .07.03.19.03h2.1v1.37h-.68v-.67h-1.42c-.21 0-.4-.04-.56-.14a.8.8 0 0 1 -.32-.37c-.1-.23-.08-.5-.07-.6v-.87h-1.63l1.51-2.89a4.72 4.72 0 0 1 4.71-5.46 4.71 4.71 0 0 1 4.78 4.66 4.5 4.5 0 0 1 -1.3 3.4v1.94h-.7v-2.26l.12-.1c.82-.71 1.18-1.76 1.18-2.98 0-2.18-1.81-3.96-4.07-3.96z"/></g></svg>

<!-- by TradingView --><svg xmlns="http://www.w3.org/2000/svg" width="18" height="18" viewBox="0 0 18 18"><path fill="#F0F3FA" d="M0 0h18v18H0z"/><path d="M4.94 8h8.53c.45 1.34-.83 2.3-1.47 2.83V14H7.36v-1c-.33 0-1.12.02-1.65 0a.93.93 0 0 1-.85-.6v-1.43l-1.15-.14 1.15-2.21.08-.62z" fill="#1FC2DE"/><path d="M5.59 8a3.66 3.66 0 0 1 3.69-3.96A3.66 3.66 0 0 1 12.96 8h-.69a2.98 2.98 0 0 0-3-3.3 2.98 2.98 0 0 0-3 3.3H5.6z" fill="#510B76"/><path fill="#510B76" d="M6.25 7.33h3.37v.66H6.25zM10.28 7.31h2.36V8h-2.36z"/><path fill="#510B76" d="M11 8.66V6.67h.67v2z"/><path d="M9.23 3.7a4.02 4.02 0 0 0-4 4.75l.02.12-1.09 2.08h1.17v1.76c0 .06 0 .1.02.14a.1.1 0 0 0 .04.05c.02 0 .07.03.19.03h2.1V14H7v-.67H5.58c-.21 0-.4-.04-.56-.14a.8.8 0 0 1-.32-.37c-.1-.23-.08-.5-.07-.6v-.87H3l1.51-2.89A4.72 4.72 0 0 1 9.22 3 4.71 4.71 0 0 1 14 7.66a4.5 4.5 0 0 1-1.3 3.4V13H12v-2.26l.12-.1c.82-.71 1.18-1.76 1.18-2.98 0-2.18-1.81-3.96-4.07-3.96z" fill="#510B76"/></svg>
